Yaru++/apps/symbolic/goa-account-owncloud-symbolic.svg

<svg height="16" width="16" xmlns="http://www.w3.org/2000/svg">
  <path d="m7.9999996 5a3 3 0 0 0 -2.9999996 3 3 3 0 0 0 2.9999996 3 3 3 0 0 0 3.0000004-3 3 3 0 0 0 -3.0000004-3zm3.0000004 3a2.25 2.25 0 0 0 2.25 2.25 2.25 2.25 0 0 0 2.25-2.25 2.25 2.25 0 0 0 -2.25-2.25 2.25 2.25 0 0 0 -2.25 2.25zm-6 0a2.25 2.25 0 0 0 -2.25-2.25 2.25 2.25 0 0 0 -2.25 2.25 2.25 2.25 0 0 0 2.25 2.25 2.25 2.25 0 0 0 2.25-2.25zm2.9999996-1.5a1.5 1.5 0 0 1 1.5 1.5 1.5 1.5 0 0 1 -1.5 1.5 1.5 1.5 0 0 1 -1.4999996-1.5 1.5 1.5 0 0 1 1.4999996-1.5zm-5.2499996.75a.75000002.75000002 0 0 1 .75.75.75000002.75000002 0 0 1 -.75.75.75000002.75000002 0 0 1 -.75-.75.75000002.75000002 0 0 1 .75-.75zm10.5 0a.75000002.75000002 0 0 1 .75.75.75000002.75000002 0 0 1 -.75.75.75000002.75000002 0 0 1 -.75-.75.75000002.75000002 0 0 1 .75-.75z" fill="#808080" fill-opacity=".992157"/>
</svg>

<svg xmlns="http://www.w3.org/2000/svg" width="16" height="16" version="1.1">
 <path style="fill:#808080;fill-opacity:0.99215686" d="M 7.9999996,5 A 3,3 0 0 0 5,8 3,3 0 0 0 7.9999996,11 3,3 0 0 0 11,8 3,3 0 0 0 7.9999996,5 Z M 11,8 A 2.25,2.25 0 0 0 13.25,10.25 2.25,2.25 0 0 0 15.5,8 2.25,2.25 0 0 0 13.25,5.75 2.25,2.25 0 0 0 11,8 Z M 5,8 A 2.25,2.25 0 0 0 2.75,5.75 2.25,2.25 0 0 0 0.5,8 2.25,2.25 0 0 0 2.75,10.25 2.25,2.25 0 0 0 5,8 Z M 7.9999996,6.5 a 1.5,1.5 0 0 1 1.5,1.5 1.5,1.5 0 0 1 -1.5,1.5 A 1.5,1.5 0 0 1 6.5,8 1.5,1.5 0 0 1 7.9999996,6.5 Z M 2.75,7.25 A 0.75000002,0.75000002 0 0 1 3.5,8 0.75000002,0.75000002 0 0 1 2.75,8.75 0.75000002,0.75000002 0 0 1 2,8 0.75000002,0.75000002 0 0 1 2.75,7.25 Z m 10.5,0 A 0.75000002,0.75000002 0 0 1 14,8 0.75000002,0.75000002 0 0 1 13.25,8.75 0.75000002,0.75000002 0 0 1 12.5,8 0.75000002,0.75000002 0 0 1 13.25,7.25 Z"/>
</svg>
